X:1
T:Title
%%score { ( 1 3 4 ) | 2 }
L:1/8
M:3/4
K:Bb
V:1 treble nm="Grand Piano"
V:3 treble 
V:4 treble 
V:2 bass 
V:1
 z2 z2[Q:1/4=86] (3FGA | [DB]2 [DB]2 (3[Fd][Fc][FB] | c2 c2 (3FAB | c2 c>d (3edc | d4 (3dcd | %5
 [Ge]2 [Ge]>[Gd] (3[Gc][GB][^Fc] | [Fd]2 [Fd]2 (3[FB][Fc][Fd] | [=Ec]3 [EB] (3AGA |[M:2/4] [DB]4 | %9
[M:1/4] (3BA_A |[M:3/4] G2 G2 z2 | (3DDD D>D (3FBc | d4 z2 | c4 (3c=Bc | e2 e>d (3cBc | %15
 d2 d2 (3[FB][Fc][Fd] | [=Ec]3 [EB] (3AGA |[M:2/4] [DB]4 |] %18
V:2
 z2 z2 (3[F,A,][F,B,=E][F,C_E] | [B,,B,]2 [B,,F,]2 (3[B,,B,][C,A,][D,B,] | %2
 [F,A,F]2 [F,A,F]2 (3[F,A,][F,CE][F,B,D] | [F,A,F]2 [F,A,F]>[F,B,F] (3[F,CF][F,B,F][F,A,F] | %4
 [B,F]4 (3[B,F][B,F][B,_A] | [E,B,]2 [E,B,]>[E,B,] (3[E,B,][E,B,][E,B,] | %6
 [B,,B,]2 [B,,B,]2 (3[D,B,][C,A,][B,,B,] | [C,B,]3 [C,C] (3[F,CE][F,CE][F,CE] |[M:2/4] [B,,B,]4 | %9
[M:1/4] z2 |[M:3/4] (3[E,B,E][E,B,][E,B,] [E,B,E]>[E,B,] z2 | %11
 (3[B,,B,][B,,B,][B,,B,] [B,,B,]>[B,,B,] z2 | %12
 (3[G,B,=E][G,B,][G,B,] [G,B,]>[G,B,E] (3[C,B,]-[C,B,c]C, | [F,A,F]4 (3[F,A,F][F,_A,F][F,=A,F] | %14
 [F,CF]2 [F,CF]>[F,B,F] (3[F,A,F][F,G,F][F,A,F] | [B,F]2 [B,F]2[K:bass] (3[D,B,][C,A,][B,,B,] | %16
 [C,B,]3 [C,C] (3[F,CE][F,CE][F,CE] |[M:2/4] [B,,B,]4 |] %18
V:3
 x6 | x6 | x6 | x6 | x6 | x6 | x6 | x6 |[M:2/4] x4 |[M:1/4] x2 |[M:3/4] (3z EE z z/ E/ (3BAG | %11
 F2 F2 z2 | (3z =EE z z/ d/ (3[E-d]E[CEB] | x6 | x6 | x6 | x6 |[M:2/4] x4 |] %18
V:4
 x6 | x6 | x6 | x6 | x6 | x6 | x6 | x6 |[M:2/4] x4 |[M:1/4] x2 |[M:3/4] x6 | x6 | z2 =E2 z2 | x6 | %14
 x6 | x6 | x6 |[M:2/4] x4 |] %18

